assets/icons/task/warning.svg

<?xml version="1.0" encoding="UTF-8" standalone="no"?>
<svg
   viewBox="0 0 24 24"
   height="24"
   width="24"
   version="1.1"
   id="svg4"
   sodipodi:docname="due.svg"
   inkscape:version="1.2 (1:1.2.1+202207142221+cd75a1ee6d)"
   xmlns:inkscape="http://www.inkscape.org/namespaces/inkscape"
   xmlns:sodipodi="http://sodipodi.sourceforge.net/DTD/sodipodi-0.dtd"
   xmlns="http://www.w3.org/2000/svg"
   xmlns:svg="http://www.w3.org/2000/svg">
  <defs
     id="defs8" />
  <sodipodi:namedview
     id="namedview6"
     pagecolor="#ffffff"
     bordercolor="#666666"
     borderopacity="1.0"
     inkscape:pageshadow="2"
     inkscape:pageopacity="0.0"
     inkscape:pagecheckerboard="0"
     showgrid="true"
     inkscape:snap-page="true"
     inkscape:zoom="28"
     inkscape:cx="11.142857"
     inkscape:cy="12.625"
     inkscape:window-width="1920"
     inkscape:window-height="1016"
     inkscape:window-x="0"
     inkscape:window-y="0"
     inkscape:window-maximized="1"
     inkscape:current-layer="svg4"
     inkscape:showpageshadow="2"
     inkscape:deskcolor="#d1d1d1">
    <inkscape:grid
       type="xygrid"
       id="grid821" />
    <inkscape:grid
       type="xygrid"
       id="grid823"
       dotted="true"
       spacingx="0.5"
       spacingy="0.5"
       empspacing="10" />
  </sodipodi:namedview>
  <path
     id="rect896"
     style="fill:#808080;fill-opacity:1;fill-rule:evenodd;stroke-width:0.5;stroke-linecap:round"
     d="M 11.5 2 C 10.11929 2 9 3.1192909 9 4.5 C 9.00266 4.6682132 9.0222888 4.8357298 9.0585938 5 L 8.5 5 C 7.0000075 5 5.9439465 4.949257 5.1171875 5.4453125 C 4.703808 5.6933404 4.3972492 6.101222 4.2285156 6.6074219 C 4.0597825 7.1136218 4 7.7222262 4 8.5 L 4 17.5 C 4 18.277773 4.0597824 18.88638 4.2285156 19.392578 C 4.3972492 19.89878 4.703808 20.306659 5.1171875 20.554688 C 5.8450445 20.991401 6.7702502 21.00316 8 21 L 11.089844 21 C 11.117959 20.917168 11.151991 20.835131 11.197266 20.755859 L 11.628906 20 L 8 20 L 8 19.994141 C 6.8025336 19.981241 6.0042554 19.918171 5.6328125 19.695312 C 5.421195 19.568346 5.2902497 19.413719 5.1777344 19.076172 C 5.065219 18.738625 5 18.222217 5 17.5 L 5 8.5 C 5 7.7777813 5.0652192 7.2613742 5.1777344 6.9238281 C 5.2902497 6.5862825 5.421195 6.4316581 5.6328125 6.3046875 C 6.0042554 6.0818216 6.8025336 6.0187627 8 6.0058594 L 8 7 L 11.5 7 L 15 7 L 15 6.0058594 C 16.197467 6.0187624 16.995743 6.0818218 17.367188 6.3046875 C 17.578802 6.4316581 17.70975 6.5862825 17.822266 6.9238281 C 17.934781 7.2613742 18 7.7777813 18 8.5 L 18 9 L 18 14.101562 L 19 15.851562 L 19 9 L 19 8.5 C 19 7.7222262 18.94022 7.1136218 18.771484 6.6074219 C 18.602754 6.101222 18.296194 5.6933404 17.882812 5.4453125 C 17.056055 4.9492572 15.999994 5 14.5 5 L 13.941406 5 C 13.977706 4.8357298 13.99735 4.6682132 14 4.5 C 14 3.1192909 12.88071 2 11.5 2 z M 11.5 3 C 12.328425 3 13 3.6715745 13 4.5 C 13 5.3284255 12.328425 6 11.5 6 C 10.671575 6 10 5.3284255 10 4.5 C 10 3.6715745 10.671575 3 11.5 3 z M 7 9 L 7 10 L 16 10 L 16 9 L 7 9 z M 7 11 L 7 12 L 16 12 L 16 11 L 7 11 z M 7 13 L 7 14 L 15.058594 14 L 15.197266 13.755859 C 15.377634 13.440219 15.666472 13.208521 16 13.089844 L 16 13 L 7 13 z M 7 15 L 7 16 L 12 16 L 12 15 L 7 15 z " />
  <path
     id="path1329"
     style="color:#000000;fill:#808080;fill-opacity:1;stroke-width:1px;stroke-linejoin:round;-inkscape-stroke:none"
     d="m 16.5,14 a 0.50005,0.50005 0 0 0 -0.433594,0.251953 l -4,7 a 0.50005,0.50005 0 0 0 0.433594,0.748047 h 8 a 0.50005,0.50005 0 0 0 0.433594,-0.748047 l -4,-7 a 0.50005,0.50005 0 0 0 -0.433594,-0.251953 z m -0.5,2 h 1 v 2 l -0.199219,1 h -0.601562 l -0.199219,-1 z m 0.5,4 a 0.5,0.5 0 0 1 0.5,0.5 0.5,0.5 0 0 1 -0.5,0.5 0.5,0.5 0 0 1 -0.5,-0.5 0.5,0.5 0 0 1 0.5,-0.5 z" />
</svg>

<svg height="24" width="24" xmlns="http://www.w3.org/2000/svg"><path style="fill:gray;fill-opacity:1;stroke-width:.5;stroke-linecap:round" d="M11.5 2A2.5 2.5 0 0 0 9 4.5a2.5 2.5 0 0 0 .059.5H8.5c-1.5 0-2.556-.05-3.383.445-.413.248-.72.656-.888 1.162C4.059 7.114 4 7.722 4 8.5v9c0 .778.06 1.386.229 1.893.168.506.475.914.888 1.162.728.436 1.653.448 2.883.445h3.09a1.38 1.38 0 0 1 .107-.244L11.63 20H8v-.006c-1.197-.013-1.996-.076-2.367-.299-.212-.127-.343-.281-.455-.619C5.065 18.74 5 18.222 5 17.5v-9c0-.722.065-1.239.178-1.576.112-.338.243-.492.455-.62.371-.222 1.17-.285 2.367-.298V7h7v-.994c1.197.013 1.996.076 2.367.299.212.127.343.281.455.619.113.337.178.854.178 1.576v5.602l1 1.75V8.5c0-.778-.06-1.386-.229-1.893-.168-.506-.475-.914-.888-1.162C17.056 4.95 16 5 14.5 5h-.559A2.5 2.5 0 0 0 14 4.5 2.5 2.5 0 0 0 11.5 2zm0 1a1.5 1.5 0 1 1 0 3 1.5 1.5 0 0 1 0-3zM7 9v1h9V9H7zm0 2v1h9v-1H7zm0 2v1h8.059l.138-.244A1.5 1.5 0 0 1 16 13.09V13H7zm0 2v1h5v-1H7z"/><path style="color:#000;fill:gray;fill-opacity:1;stroke-width:1px;stroke-linejoin:round;-inkscape-stroke:none" d="M16.5 14a.5.5 0 0 0-.434.252l-4 7A.5.5 0 0 0 12.5 22h8a.5.5 0 0 0 .434-.748l-4-7A.5.5 0 0 0 16.5 14zm-.5 2h1v2l-.2 1h-.6l-.2-1zm.5 4a.5.5 0 0 1 .5.5.5.5 0 0 1-.5.5.5.5 0 0 1-.5-.5.5.5 0 0 1 .5-.5z"/></svg>
